SF_Symbols/suit.spade.svg

<?xml version="1.0" encoding="UTF-8"?>
<svg xmlns="http://www.w3.org/2000/svg" xmlns:xlink="http://www.w3.org/1999/xlink" width="24" height="24" viewBox="0 0 24 24" version="1.1">
<g id="surface1">
<path style=" stroke:none;fill-rule:nonzero;fill:rgb(100%,100%,100%);fill-opacity:1;" d="M 0.996094 14.730469 C 0.996094 15.722656 1.203125 16.59375 1.617188 17.34375 C 2.03125 18.085938 2.609375 18.664062 3.351562 19.078125 C 4.101562 19.492188 4.976562 19.699219 5.976562 19.699219 C 6.75 19.699219 7.476562 19.554688 8.15625 19.265625 C 8.835938 18.976562 9.378906 18.601562 9.785156 18.140625 L 9.5625 17.707031 C 9.460938 18.277344 9.28125 18.796875 9.023438 19.265625 C 8.773438 19.726562 8.503906 20.136719 8.214844 20.496094 C 7.925781 20.847656 7.679688 21.144531 7.476562 21.386719 C 7.296875 21.613281 7.179688 21.847656 7.125 22.089844 C 7.078125 22.339844 7.09375 22.570312 7.171875 22.78125 C 7.25 22.992188 7.390625 23.160156 7.59375 23.285156 C 7.796875 23.417969 8.054688 23.484375 8.367188 23.484375 L 15.621094 23.484375 C 15.933594 23.484375 16.191406 23.417969 16.394531 23.285156 C 16.597656 23.160156 16.738281 22.992188 16.816406 22.78125 C 16.894531 22.570312 16.90625 22.339844 16.851562 22.089844 C 16.804688 21.847656 16.6875 21.613281 16.5 21.386719 C 16.296875 21.144531 16.050781 20.847656 15.761719 20.496094 C 15.480469 20.136719 15.210938 19.726562 14.953125 19.265625 C 14.703125 18.796875 14.527344 18.277344 14.425781 17.707031 L 14.203125 18.140625 C 14.609375 18.601562 15.152344 18.976562 15.832031 19.265625 C 16.511719 19.554688 17.238281 19.699219 18.011719 19.699219 C 19.011719 19.699219 19.882812 19.492188 20.625 19.078125 C 21.375 18.664062 21.957031 18.085938 22.371094 17.34375 C 22.785156 16.59375 22.992188 15.722656 22.992188 14.730469 C 22.992188 13.902344 22.816406 13.136719 22.464844 12.433594 C 22.121094 11.730469 21.65625 11.058594 21.070312 10.417969 C 20.492188 9.777344 19.84375 9.140625 19.125 8.507812 C 18.414062 7.875 17.6875 7.222656 16.945312 6.550781 C 16.210938 5.871094 15.511719 5.148438 14.847656 4.382812 C 14.183594 3.617188 13.613281 2.773438 13.136719 1.851562 C 13.011719 1.617188 12.867188 1.417969 12.703125 1.253906 C 12.546875 1.082031 12.308594 0.996094 11.988281 0.996094 C 11.675781 0.996094 11.4375 1.082031 11.273438 1.253906 C 11.117188 1.417969 10.976562 1.617188 10.851562 1.851562 C 10.375 2.773438 9.804688 3.617188 9.140625 4.382812 C 8.476562 5.148438 7.773438 5.871094 7.03125 6.550781 C 6.289062 7.222656 5.5625 7.875 4.851562 8.507812 C 4.140625 9.140625 3.492188 9.777344 2.90625 10.417969 C 2.328125 11.058594 1.863281 11.730469 1.511719 12.433594 C 1.167969 13.136719 0.996094 13.902344 0.996094 14.730469 Z M 2.71875 14.707031 C 2.71875 14.050781 2.878906 13.4375 3.199219 12.867188 C 3.527344 12.296875 3.960938 11.742188 4.5 11.203125 C 5.046875 10.664062 5.652344 10.113281 6.316406 9.550781 C 6.988281 8.980469 7.671875 8.371094 8.367188 7.722656 C 9.0625 7.074219 9.726562 6.355469 10.359375 5.566406 C 10.992188 4.777344 11.535156 3.890625 11.988281 2.90625 C 12.449219 3.890625 12.996094 4.777344 13.628906 5.566406 C 14.261719 6.355469 14.925781 7.074219 15.621094 7.722656 C 16.316406 8.371094 16.996094 8.980469 17.660156 9.550781 C 18.332031 10.113281 18.9375 10.664062 19.476562 11.203125 C 20.023438 11.742188 20.457031 12.296875 20.777344 12.867188 C 21.105469 13.4375 21.269531 14.050781 21.269531 14.707031 C 21.269531 15.714844 20.960938 16.527344 20.34375 17.144531 C 19.726562 17.761719 18.910156 18.070312 17.894531 18.070312 C 17.191406 18.070312 16.554688 17.941406 15.984375 17.683594 C 15.421875 17.417969 14.949219 17.109375 14.566406 16.757812 C 14.324219 16.546875 14.070312 16.441406 13.804688 16.441406 C 13.539062 16.433594 13.316406 16.519531 13.136719 16.699219 C 12.957031 16.878906 12.875 17.144531 12.890625 17.496094 C 12.929688 17.902344 13.035156 18.351562 13.207031 18.84375 C 13.386719 19.335938 13.601562 19.820312 13.851562 20.296875 C 14.109375 20.765625 14.375 21.167969 14.648438 21.503906 C 14.734375 21.605469 14.757812 21.691406 14.71875 21.761719 C 14.6875 21.832031 14.628906 21.867188 14.542969 21.867188 L 9.445312 21.867188 C 9.351562 21.867188 9.289062 21.832031 9.257812 21.761719 C 9.226562 21.691406 9.253906 21.605469 9.339844 21.503906 C 9.613281 21.167969 9.875 20.765625 10.125 20.296875 C 10.382812 19.820312 10.597656 19.335938 10.769531 18.84375 C 10.949219 18.351562 11.058594 17.902344 11.097656 17.496094 C 11.113281 17.144531 11.03125 16.878906 10.851562 16.699219 C 10.671875 16.519531 10.449219 16.433594 10.183594 16.441406 C 9.917969 16.441406 9.664062 16.546875 9.421875 16.757812 C 9.039062 17.109375 8.5625 17.417969 7.992188 17.683594 C 7.429688 17.941406 6.796875 18.070312 6.09375 18.070312 C 5.078125 18.070312 4.261719 17.761719 3.644531 17.144531 C 3.027344 16.527344 2.71875 15.714844 2.71875 14.707031 Z M 2.71875 14.707031 "/>
</g>
</svg>

<svg xmlns="http://www.w3.org/2000/svg" width="24" height="24"><path style="stroke:none;fill-rule:nonzero;fill:#fff;fill-opacity:1" d="M.996 14.73c0 .993.207 1.864.621 2.614.414.742.992 1.32 1.735 1.734.75.414 1.625.621 2.625.621.773 0 1.5-.144 2.18-.433.679-.29 1.222-.664 1.628-1.125l-.223-.434a5.094 5.094 0 0 1-.539 1.559c-.25.46-.52.87-.808 1.23-.29.352-.535.649-.738.89-.18.227-.297.462-.352.704-.047.25-.031.48.047.691.078.211.219.38.422.504.203.133.46.2.773.2h7.254c.313 0 .57-.067.774-.2a.972.972 0 0 0 .421-.504c.079-.21.09-.441.036-.691a1.537 1.537 0 0 0-.352-.703c-.203-.242-.45-.54-.738-.89-.301-.388-.57-.802-.809-1.231a5.25 5.25 0 0 1-.527-1.559l-.223.434c.406.46.95.836 1.629 1.125.691.293 1.43.437 2.18.433 1 0 1.87-.207 2.613-.62.734-.4 1.34-1 1.746-1.735.414-.75.621-1.621.621-2.614 0-.828-.176-1.593-.527-2.296a8.64 8.64 0 0 0-1.395-2.016 24.258 24.258 0 0 0-1.945-1.91c-.71-.633-1.438-1.285-2.18-1.957a27.48 27.48 0 0 1-2.097-2.168 12.923 12.923 0 0 1-1.711-2.531 2.515 2.515 0 0 0-.434-.598c-.156-.172-.394-.258-.715-.258-.312 0-.55.086-.715.258-.168.18-.308.379-.421.598a12.923 12.923 0 0 1-1.711 2.53 26.945 26.945 0 0 1-2.11 2.169c-.742.672-1.468 1.324-2.18 1.957-.71.633-1.359 1.27-1.945 1.91a9.058 9.058 0 0 0-1.394 2.016 5.132 5.132 0 0 0-.516 2.296Zm1.723-.023c0-.656.16-1.27.48-1.84.36-.61.797-1.168 1.301-1.664a32.982 32.982 0 0 1 1.816-1.652c.672-.57 1.356-1.18 2.051-1.828a20.42 20.42 0 0 0 1.992-2.157 12.888 12.888 0 0 0 1.63-2.66c.46.985 1.007 1.871 1.64 2.66.633.79 1.297 1.508 1.992 2.157a64.25 64.25 0 0 0 2.04 1.828 27.93 27.93 0 0 1 1.816 1.652c.546.54.98 1.094 1.3 1.664.328.57.493 1.184.493 1.84 0 1.008-.31 1.82-.926 2.438-.617.617-1.434.925-2.45.925-.703 0-1.34-.129-1.91-.386a5.581 5.581 0 0 1-1.418-.926c-.242-.211-.496-.317-.761-.317a.857.857 0 0 0-.668.258c-.18.18-.262.446-.246.797.039.406.144.856.316 1.348.18.492.395.976.645 1.453.257.469.523.871.796 1.207.086.101.11.187.07.258-.03.07-.09.105-.175.105H9.445c-.093 0-.156-.035-.187-.105-.031-.07-.004-.157.082-.258.273-.336.535-.738.785-1.207.258-.477.473-.961.645-1.453.18-.492.289-.942.328-1.348.015-.351-.067-.617-.246-.797a.857.857 0 0 0-.668-.258c-.266 0-.52.106-.762.317-.383.351-.86.66-1.43.926-.562.257-1.195.386-1.898.386-1.016 0-1.832-.308-2.45-.925-.617-.618-.925-1.43-.925-2.438Zm0 0"/></svg>
